svgs/regular/square-star.svg

<svg xmlns="http://www.w3.org/2000/svg" viewBox="0 0 448 512"><!--! Font Awesome Pro 6.4.0 by @fontawesome - https://fontawesome.com License - https://fontawesome.com/license (Commercial License) Copyright 2023 Fonticons, Inc. --><path d="M64 80c-8.8 0-16 7.2-16 16V416c0 8.8 7.2 16 16 16H384c8.8 0 16-7.2 16-16V96c0-8.8-7.2-16-16-16H64zM0 96C0 60.7 28.7 32 64 32H384c35.3 0 64 28.7 64 64V416c0 35.3-28.7 64-64 64H64c-35.3 0-64-28.7-64-64V96zm224 25c6.1 0 11.7 3.5 14.3 8.9l31.3 63.3 69.9 10.2c6 .9 11 5.1 12.9 10.9s.3 12.2-4 16.4L297.8 280l11.9 69.6c1 6-1.4 12.1-6.4 15.6s-11.5 4.1-16.8 1.2L224 333.6l-62.5 32.9c-5.4 2.8-11.9 2.4-16.9-1.2s-7.4-9.6-6.4-15.6L150.2 280 99.7 230.7c-4.4-4.3-5.9-10.6-4-16.4s6.9-10 12.9-10.9l69.9-10.2 31.3-63.3c2.7-5.5 8.3-8.9 14.3-8.9z"/></svg>

<svg xmlns="http://www.w3.org/2000/svg" viewBox="0 0 448 512"><!--! Font Awesome Pro 6.3.0 by @fontawesome - https://fontawesome.com License - https://fontawesome.com/license (Commercial License) Copyright 2023 Fonticons, Inc. --><path d="M224 121C230.1 121 235.7 124.5 238.3 129.9L269.6 193.2L339.5 203.4C345.5 204.3 350.5 208.5 352.4 214.3C354.3 220.1 352.7 226.4 348.3 230.7L297.8 279.1L309.7 349.6C310.7 355.6 308.3 361.6 303.4 365.2C298.4 368.8 291.9 369.3 286.5 366.4L224 333.6L161.5 366.4C156.1 369.3 149.6 368.8 144.6 365.2C139.7 361.6 137.3 355.6 138.3 349.6L150.2 279.1L99.66 230.7C95.3 226.4 93.73 220.1 95.61 214.3C97.49 208.5 102.5 204.3 108.5 203.4L178.4 193.2L209.7 129.9C212.3 124.5 217.9 121 224 121V121zM0 96C0 60.65 28.65 32 64 32H384C419.3 32 448 60.65 448 96V416C448 451.3 419.3 480 384 480H64C28.65 480 0 451.3 0 416V96zM48 96V416C48 424.8 55.16 432 64 432H384C392.8 432 400 424.8 400 416V96C400 87.16 392.8 80 384 80H64C55.16 80 48 87.16 48 96z"/></svg>
